svg/fluentui-system-icons/ic_fluent_plug_disconnected_20_regular.svg

<svg width="20" height="20" viewBox="0 0 20 20" fill="none" xmlns="http://www.w3.org/2000/svg">
<path d="M17.8536 2.14645C18.0488 2.34171 18.0488 2.65829 17.8536 2.85355L16.1855 4.52163C17.2661 5.907 17.3164 7.83521 16.3366 9.27118C16.1966 9.47632 16.0356 9.67141 15.8536 9.85344L15.5536 10.1534L15.5512 10.1558L15.2425 10.4646C14.8324 10.8746 14.1676 10.8746 13.7576 10.4646L9.53534 6.24233C9.1253 5.83229 9.1253 5.16749 9.53534 4.75745L10.1465 4.14634C11.6027 2.69006 13.8951 2.57945 15.4784 3.81451L17.1464 2.14645C17.3417 1.95118 17.6583 1.95118 17.8536 2.14645ZM15.1404 4.8474C14.1027 3.81542 12.5049 3.68797 11.3289 4.46503C11.1609 4.57604 11.0015 4.70551 10.8536 4.85344L10.5536 5.15344C10.3622 5.34478 10.3622 5.655 10.5536 5.84634L14.1536 9.44634C14.3444 9.6372 14.6536 9.63767 14.845 9.44776L14.8465 9.44634L15.1465 9.14634C16.3299 7.96293 16.3319 6.04552 15.1526 4.85958L15.1464 4.85355L15.1404 4.8474ZM9.35355 8.64645C9.54882 8.84171 9.54882 9.15829 9.35355 9.35355L7.70706 11L8.99995 12.2929L10.6464 10.6464C10.8417 10.4512 11.1583 10.4512 11.3536 10.6464C11.5488 10.8417 11.5488 11.1583 11.3536 11.3536L9.70706 13L10.1536 13.4466C10.7354 14.0284 10.7354 14.9718 10.1536 15.5537L9.85357 15.8537C8.39729 17.3099 6.10492 17.4205 4.52163 16.1855L2.85355 17.8536C2.65829 18.0488 2.34171 18.0488 2.14645 17.8536C1.95118 17.6583 1.95118 17.3417 2.14645 17.1464L3.81454 15.4784C2.57958 13.8951 2.69022 11.6028 4.14646 10.1466L4.44646 9.84655C5.02832 9.26469 5.9717 9.26469 6.55356 9.84655L6.99995 10.2929L8.64645 8.64645C8.84171 8.45118 9.15829 8.45118 9.35355 8.64645ZM4.85896 15.1519C6.04484 16.332 7.9628 16.3302 9.14646 15.1466L9.44646 14.8466C9.6378 14.6552 9.6378 14.345 9.44646 14.1537L5.84646 10.5537C5.65512 10.3623 5.3449 10.3623 5.15356 10.5537L4.85357 10.8537C3.66995 12.0373 3.66812 13.9552 4.84808 15.1411C4.84992 15.1428 4.85174 15.1446 4.85355 15.1464C4.85537 15.1483 4.85717 15.1501 4.85896 15.1519Z" fill="#212121"/>
</svg>

<svg xmlns="http://www.w3.org/2000/svg" width="20" height="20"><path d="M17.854 2.146a.5.5 0 0 1 0 .708l-1.668 1.668a4.039 4.039 0 0 1-.332 5.331l-.3.3-.003.003-.309.309a1.05 1.05 0 0 1-1.484 0L9.535 6.242a1.05 1.05 0 0 1 0-1.485l.611-.61a4.036 4.036 0 0 1 5.332-.332l1.668-1.669a.5.5 0 0 1 .708 0ZM15.14 4.847a3.037 3.037 0 0 0-4.286.006l-.3.3a.49.49 0 0 0 0 .693l3.6 3.6c.19.191.5.192.691.002l.002-.002.3-.3a3.036 3.036 0 0 0 .006-4.286l-.007-.006-.006-.007Zm-5.786 3.8a.5.5 0 0 1 0 .707L7.707 11 9 12.293l1.646-1.647a.5.5 0 0 1 .708.708L9.707 13l.447.447a1.49 1.49 0 0 1 0 2.107l-.3.3a4.036 4.036 0 0 1-5.332.332l-1.668 1.668a.5.5 0 0 1-.708-.708l1.669-1.668a4.036 4.036 0 0 1 .331-5.331l.3-.3a1.49 1.49 0 0 1 2.108 0l.446.446 1.646-1.647a.5.5 0 0 1 .708 0Zm-4.495 6.505a3.036 3.036 0 0 0 4.287-.005l.3-.3a.49.49 0 0 0 0-.693l-3.6-3.6a.49.49 0 0 0-.692 0l-.3.3a3.036 3.036 0 0 0 0 4.292l.005.006Z"/></svg>
